assets/ic-tips.svg

<svg width="150" height="210" viewBox="0 0 150 210" fill="none" xmlns="http://www.w3.org/2000/svg">
<path fill-rule="evenodd" clip-rule="evenodd" d="M79.5146 0.586078C95.3629 2.04687 108.914 7.86885 120.781 17.518C122.64 19.029 127.154 22.7012 128.479 24.3283C135.458 32.8965 140.253 39.9514 144.231 52.1158C157.84 93.725 138.817 106.769 118.26 135.627C111.376 145.29 112.478 148.879 110.384 161.327C108.581 172.043 95.7261 169.155 84.908 169.158C73.7436 169.161 62.574 169.233 51.4096 169.254C26.4674 169.299 50.0528 152.497 20.4776 125.151L10.1009 111.038C-5.69638 81.9291 -2.2623 46.8569 19.7062 24.4727C22.0635 22.0708 25.3872 18.2939 27.8715 16.3267C39.6961 6.95647 59.2609 -1.28025 79.5146 0.586078ZM78.6597 9.86255C63.2396 8.44145 45.7683 14.0329 33.6572 23.6287C31.1657 25.602 28.6248 28.6857 26.3555 30.9977C6.5697 51.1584 5.11874 81.8255 17.9956 106.05L27.4697 118.933C35.6328 126.627 42.1698 135.551 45.1454 146.511C46.0567 149.868 46.545 153.156 46.9585 156.597C47.0428 157.3 47.1637 158.661 47.358 159.695C48.6445 159.913 50.5528 159.939 51.3926 159.937C62.5634 159.917 73.7353 159.846 84.9061 159.843C87.574 159.841 98.3495 160.65 101.2 159.768C103.366 146.893 102.558 141.613 110.673 130.222C130.605 102.241 147.457 91.9471 135.377 55.0117C132.033 44.7884 127.939 38.4173 121.285 30.2467C119.721 28.4934 116.824 26.3084 114.903 24.7463C104.25 16.0844 92.3756 11.1264 78.6597 9.86255ZM74.0569 200.192C78.3735 200.194 85.2073 200.259 89.2352 198.622C92.0913 197.462 92.9973 195.333 93.6137 192.381C93.8352 191.324 94.037 189.755 94.1236 188.239L52.946 188.115C53.1909 189.506 53.5507 190.976 53.7431 191.733C54.6812 195.434 56.156 197.967 59.8803 199.177C64.0185 200.52 69.7509 200.19 74.0569 200.192ZM74.0524 209.508C63.4716 209.514 48.9522 210.754 44.7127 194.021C41.8875 182.874 43.3717 178.845 51.3745 178.795L95.8308 178.928C101.172 178.983 102.579 178.85 103.283 183.638C103.715 186.591 103.345 191.355 102.733 194.286C99.7509 208.562 88.6327 209.526 74.0524 209.508ZM69.9358 95.0584C68.8949 94.0617 68.5713 93.3939 67.4995 92.3594C63.495 88.4896 66.177 92.3874 59.3527 84.2489C56.6122 80.9815 52.5991 72.8952 46.2714 77.2697C41.9465 81.7295 51.9225 87.6766 60.3996 97.6784C62.354 99.9839 65.491 105.423 70.6282 104.88C75.0559 104.411 77.3478 99.9113 80.0649 96.4175C82.4861 93.3051 83.8739 93.1788 88.8398 87.1282C90.3838 85.2467 91.3936 84.0649 92.9962 82.1921L106.367 68.4687C112.412 63.0046 113.745 61.3635 111.523 56.5106C102.557 53.8147 101.962 62.9468 94.2219 69.0095C90.7761 71.7092 87.7267 76.0474 84.8203 79.5336C82.6588 82.1267 81.8692 82.0447 79.7123 84.2864L69.9358 95.0584Z" fill="black"/>
<path fill-rule="evenodd" clip-rule="evenodd" d="M79.5146 0.586078C95.3629 2.04687 108.914 7.86885 120.781 17.518C122.64 19.029 127.154 22.7012 128.479 24.3283C135.458 32.8965 140.253 39.9514 144.231 52.1158C157.84 93.725 138.817 106.769 118.26 135.627C111.376 145.29 112.478 148.879 110.384 161.327C108.581 172.043 95.7261 169.155 84.908 169.158C73.7436 169.161 62.574 169.233 51.4096 169.254C26.4674 169.299 50.0528 152.497 20.4776 125.151L10.1009 111.038C-5.69638 81.9291 -2.2623 46.8569 19.7062 24.4727C22.0635 22.0708 25.3872 18.2939 27.8715 16.3267C39.6961 6.95647 59.2609 -1.28025 79.5146 0.586078ZM78.6597 9.86255C63.2396 8.44145 45.7683 14.0329 33.6572 23.6287C31.1657 25.602 28.6248 28.6857 26.3555 30.9977C6.5697 51.1584 5.11874 81.8255 17.9956 106.05L27.4697 118.933C35.6328 126.627 42.1698 135.551 45.1454 146.511C46.0567 149.868 46.545 153.156 46.9585 156.597C47.0428 157.3 47.1637 158.661 47.358 159.695C48.6445 159.913 50.5528 159.939 51.3926 159.937C62.5634 159.917 73.7353 159.846 84.9061 159.843C87.574 159.841 98.3495 160.65 101.2 159.768C103.366 146.893 102.558 141.613 110.673 130.222C130.605 102.241 147.457 91.9471 135.377 55.0117C132.033 44.7884 127.939 38.4173 121.285 30.2467C119.721 28.4934 116.824 26.3084 114.903 24.7463C104.25 16.0844 92.3756 11.1264 78.6597 9.86255ZM74.0569 200.192C78.3735 200.194 85.2073 200.259 89.2352 198.622C92.0913 197.462 92.9973 195.333 93.6137 192.381C93.8352 191.324 94.037 189.755 94.1236 188.239L52.946 188.115C53.1909 189.506 53.5507 190.976 53.7431 191.733C54.6812 195.434 56.156 197.967 59.8803 199.177C64.0185 200.52 69.7509 200.19 74.0569 200.192ZM74.0524 209.508C63.4716 209.514 48.9522 210.754 44.7127 194.021C41.8875 182.874 43.3717 178.845 51.3745 178.795L95.8308 178.928C101.172 178.983 102.579 178.85 103.283 183.638C103.715 186.591 103.345 191.355 102.733 194.286C99.7509 208.562 88.6327 209.526 74.0524 209.508ZM69.9358 95.0584C68.8949 94.0617 68.5713 93.3939 67.4995 92.3594C63.495 88.4896 66.177 92.3874 59.3527 84.2489C56.6122 80.9815 52.5991 72.8952 46.2714 77.2697C41.9465 81.7295 51.9225 87.6766 60.3996 97.6784C62.354 99.9839 65.491 105.423 70.6282 104.88C75.0559 104.411 77.3478 99.9113 80.0649 96.4175C82.4861 93.3051 83.8739 93.1788 88.8398 87.1282C90.3838 85.2467 91.3936 84.0649 92.9962 82.1921L106.367 68.4687C112.412 63.0046 113.745 61.3635 111.523 56.5106C102.557 53.8147 101.962 62.9468 94.2219 69.0095C90.7761 71.7092 87.7267 76.0474 84.8203 79.5336C82.6588 82.1267 81.8692 82.0447 79.7123 84.2864L69.9358 95.0584Z" stroke="black" stroke-width="0.639874" stroke-miterlimit="22.9256"/>
</svg>

<svg xmlns="http://www.w3.org/2000/svg" width="150" height="210" fill="none" viewBox="0 0 150 210"><path fill="#000" fill-rule="evenodd" d="M79.515.586c15.848 1.46 29.399 7.283 41.266 16.932 1.859 1.511 6.373 5.183 7.698 6.81 6.979 8.569 11.774 15.623 15.752 27.788 13.609 41.609-5.414 54.653-25.971 83.511-6.884 9.663-5.782 13.252-7.876 25.7-1.803 10.716-14.658 7.828-25.476 7.831-11.164.003-22.334.075-33.498.096-24.943.045-1.357-16.757-30.932-44.103L10.1 111.038C-5.696 81.929-2.262 46.857 19.706 24.473c2.358-2.402 5.681-6.18 8.166-8.146C39.696 6.957 59.26-1.28 79.515.587m-.855 9.277c-15.42-1.422-32.892 4.17-45.003 13.766-2.491 1.973-5.032 5.057-7.301 7.369-19.786 20.16-21.237 50.828-8.36 75.052l9.474 12.883c8.163 7.694 14.7 16.618 17.675 27.578.912 3.357 1.4 6.645 1.813 10.086.085.703.206 2.064.4 3.098 1.287.218 3.195.244 4.035.242 11.17-.02 22.342-.091 33.513-.094 2.668-.002 13.444.807 16.294-.075 2.166-12.875 1.358-18.155 9.473-29.546 19.932-27.981 36.784-38.275 24.704-75.21-3.344-10.224-7.438-16.595-14.092-24.765-1.564-1.754-4.461-3.939-6.382-5.5-10.653-8.663-22.527-13.62-36.243-14.884m-4.603 190.329c4.317.002 11.15.067 15.178-1.57 2.856-1.16 3.762-3.289 4.379-6.241.221-1.057.423-2.626.51-4.142l-41.178-.124c.245 1.391.605 2.861.797 3.618.938 3.701 2.413 6.234 6.137 7.444 4.139 1.343 9.87 1.013 14.177 1.015m-.005 9.316c-10.58.006-25.1 1.246-29.34-15.487-2.825-11.147-1.34-15.176 6.662-15.226l44.457.133c5.341.055 6.748-.078 7.452 4.71.432 2.953.062 7.717-.55 10.648-2.982 14.276-14.1 15.24-28.68 15.222m-4.116-114.45c-1.041-.996-1.365-1.664-2.437-2.699-4.004-3.87-1.322.028-8.146-8.11-2.74-3.267-6.754-11.354-13.082-6.98-4.324 4.46 5.651 10.408 14.129 20.41 1.954 2.305 5.091 7.744 10.228 7.201 4.428-.469 6.72-4.969 9.437-8.462 2.421-3.113 3.809-3.24 8.775-9.29a275 275 0 0 1 4.156-4.936l13.371-13.723c6.045-5.464 7.378-7.105 5.156-11.958-8.966-2.696-9.561 6.436-17.301 12.499-3.446 2.7-6.495 7.037-9.402 10.524-2.161 2.593-2.95 2.51-5.108 4.752z" clip-rule="evenodd"/><path stroke="#000" stroke-miterlimit="22.926" stroke-width=".64" d="M79.515.586c15.848 1.46 29.399 7.283 41.266 16.932 1.859 1.511 6.373 5.183 7.698 6.81 6.979 8.569 11.774 15.623 15.752 27.788 13.609 41.609-5.414 54.653-25.971 83.511-6.884 9.663-5.782 13.252-7.876 25.7-1.803 10.716-14.658 7.828-25.476 7.831-11.164.003-22.334.075-33.498.096-24.943.045-1.357-16.757-30.932-44.103L10.1 111.038C-5.696 81.929-2.262 46.857 19.706 24.473c2.358-2.402 5.681-6.18 8.166-8.146C39.696 6.957 59.26-1.28 79.515.587Zm-.855 9.277c-15.42-1.422-32.892 4.17-45.003 13.766-2.491 1.973-5.032 5.057-7.301 7.369-19.786 20.16-21.237 50.828-8.36 75.052l9.474 12.883c8.163 7.694 14.7 16.618 17.675 27.578.912 3.357 1.4 6.645 1.813 10.086.085.703.206 2.064.4 3.098 1.287.218 3.195.244 4.035.242 11.17-.02 22.342-.091 33.513-.094 2.668-.002 13.444.807 16.294-.075 2.166-12.875 1.358-18.155 9.473-29.546 19.932-27.981 36.784-38.275 24.704-75.21-3.344-10.224-7.438-16.595-14.092-24.765-1.564-1.754-4.461-3.939-6.382-5.5-10.653-8.663-22.527-13.62-36.243-14.884Zm-4.603 190.329c4.317.002 11.15.067 15.178-1.57 2.856-1.16 3.762-3.289 4.379-6.241.221-1.057.423-2.626.51-4.142l-41.178-.124c.245 1.391.605 2.861.797 3.618.938 3.701 2.413 6.234 6.137 7.444 4.139 1.343 9.87 1.013 14.177 1.015Zm-.005 9.316c-10.58.006-25.1 1.246-29.34-15.487-2.825-11.147-1.34-15.176 6.662-15.226l44.457.133c5.341.055 6.748-.078 7.452 4.71.432 2.953.062 7.717-.55 10.648-2.982 14.276-14.1 15.24-28.68 15.222Zm-4.116-114.45c-1.041-.996-1.365-1.664-2.437-2.699-4.004-3.87-1.322.028-8.146-8.11-2.74-3.267-6.754-11.354-13.082-6.98-4.324 4.46 5.651 10.408 14.129 20.41 1.954 2.305 5.091 7.744 10.228 7.201 4.428-.469 6.72-4.969 9.437-8.462 2.421-3.113 3.809-3.24 8.775-9.29a275 275 0 0 1 4.156-4.936l13.371-13.723c6.045-5.464 7.378-7.105 5.156-11.958-8.966-2.696-9.561 6.436-17.301 12.499-3.446 2.7-6.495 7.037-9.402 10.524-2.161 2.593-2.95 2.51-5.108 4.752z" clip-rule="evenodd"/></svg>
